X:1
T:Stavo in forse
T:Anonymous
T:Source : Canzonette a tre voci di A.Banchieri---Venetia---R.Amadino---1597. Editor : André Vierendeels (05/03/17).
T:Notes : Original clefs : C1, C1, C4 Sub-heading : "Proposta dell' Amante" See also the "Riposta de l'amata : T'ingannavi" 
T:Stavo in forse
T:©
T:©
T:©
T:©
C:Anonymous
Z:©
%%score [ 1 2 3 ]
L:1/8
Q:1/4=102
M:4/4
K:C
V:1 treble nm="Soprano" snm="S"
V:2 treble nm="Alto" snm="A"
V:3 treble-8 nm="Tenor" snm="T"
V:1
 A6 D2 | F3 G AGAB | c4 F2 G2 | A2 GF E4 | ^F2 A2 A2 A2 | _B2 A2 G2 E2 | F3 E D2 D2 | ^C4 D2 D2- | %8
w: Sta- vo'in|for- * * * * *|* se ben|mi- * * *|o, se tu m'a-|mas- si co- me|t'a- * * ma-|v'i- o, co-|
 D2 E2 C2 D2 | D2 ^C2 D4 | z4 A4- | A2 D2 F3 G | AGAB c4 | F2 G2 A4 | A2 F2 F2 E2 | F4 E2 A2- | %16
w: * me t'a- ma-|v'i- * o,|sta-|* vo'in for- *||se ben mi-|o, se tu m'a-|mas- si co-|
 A2 D2 G3 F | E4 ^F2 G2- | G2 G2 A2 F2 | E4 ^F4 |: G2 GG c2 G2 | A2 G2 F2 E2 | F4 E4 | D4 ^C4 | %24
w: * me t'a- ma-|vi' o, co-|* me t'a- ma-|v'i- o.|Ma poi che tu mi|sprez- * * *|* zi'e|vuoi, e|
 D4 E4 | F8 | E8 | z4 A2 AG | F2 E2 D4- | D2 E2 F4- | F4 E2 D2 | ^C4 D4 | E8 | ^F8 :| %34
w: vuoi ch'io|mo-|ra,|tram- mi di|vi- ta'e del-|* le pe-||* ne'an-|co-|ra.|
V:2
 z4 A4- | A2 D2 F3 G | AGAB c4 | F2 G2 A4 |"^-natural""^-natural""^-natural" A2 F2 F2 E2 | %5
w: Sta-|* vo'in for- *||se ben mi-|o, se tu m'a-|
 F4 E2 A2- | A2 D2 G3 F | E4 ^F2 G2- |"^-natural" G2 G2 A2 F2 | E4 ^F4 | A6 D2 | %11
w: mas- si co-|* me t'a- ma-|v'i- o, co-|* me t'a- ma-|v'i- o,|sta- vo'in|
"^-natural" F3 G AGAB | c4 F2 G2 | A2 GF E4 | ^F2 A2 A2 A2 | _B2 A2 G2 E2 | F3 E D2 D2 | %17
w: for- * * * * *|* se ben|mi- * * *|o, se tu m'a-|mas- si co- me|t'a- * * ma-|
 ^C4 D2 D2- | D2 E2 C2 D2 | D2 ^C2 D4 |: D2 DD C2 D2 | E4 D4 | D4 ^C4 | D4 E4 | F2 G2 A4- | %25
w: v'i- o, co-|* me t'a- ma-|v'i- * o.|Ma poi che tu mi|sprez _|_ zi'e|vuoi, ch'io|mo- * *|
 A4 _B4 | A4 A2 AG | F2 E2 D4 | C4 F4- | F2 E2 D4- | D4 E4- | E4 D4- | D4 ^C4 | D8 :| %34
w: |ra, tram- mi di|vi- ta'e del-|le pe-||* ne'an-|* co-||ra.|
V:3
 z8 | z8 | z8 | z4 A4 | d6 c2 | _B2 F2 c4 | F2 _B4 G2 | A4 D2 G2- | G2 E2 F2 D2 | A4 D4 | z8 | z8 | %12
w: |||Se|tu m'a-|mas- si co-|me t'a- ma-|v'i- o, co-|* me t'a- ma-|v'i- o,|||
 z8 | z4 A4 | d6 c2 | _B2 F2 c4 | F2 _B4 G2 | A4 D2 G2- |"^-natural" G2 C2 F2 D2 | A4 D4 |: %20
w: |se|tu m'a-|mas- si co-|me t'a- ma-|v'i- o, co-|* me t'a- ma-|v'i- o.|
 G2 GG A2 B2 | ^c4 d4 | A6 G2 | F4 E4 | D4 ^C4 | D8 | A8 | z8 | A2 AG F2 E2 | D6 E2 | F4 G4 | %31
w: Ma poi che tu mi|sprez- zi'e|vuoi, _|_ e|vuoi ch'io|mo-|ra,||tram- mi di vi- ta'e|del- *|* le|
 A4 _B4 | A8 | D8 :| %34
w: pe- ne'an-|co-|ra.|

